TCanvas/axes.svg

<svg xmlns="http://www.w3.org/2000/svg" viewBox="0 0 1200 800" preserveAspectRatio="none" width="1200" height="800">
 <defs>
  <pattern id="pat_3005_6" patternUnits="userSpaceOnUse" width="8" height="8">
   <path d="M0,0L8,8" style="stroke: magenta; stroke-width: 1;"></path>
  </pattern>
  <pattern id="pat_3005_1" patternUnits="userSpaceOnUse" width="8" height="8">
   <path d="M0,0L8,8" style="stroke: black; stroke-width: 1;"></path>
  </pattern>
  <pattern id="pat_3004_2" patternUnits="userSpaceOnUse" width="8" height="8">
   <path d="M8,0L0,8" style="stroke: red; stroke-width: 1;"></path>
  </pattern>
  <pattern id="pat_3004_4" patternUnits="userSpaceOnUse" width="8" height="8">
   <path d="M8,0L0,8" style="stroke: blue; stroke-width: 1;"></path>
  </pattern>
 </defs>
 <path d="M0,0H1200V800H0Z" style="fill: white;"></path>
 <g>
  <g transform="translate(120,80)">
   <path d="M0,0H960V640H0Z" style="fill: white; stroke: black; stroke-width: 1;"></path>
   <g>
    <path d="M103,0v640M392,0v640M681,0v640" style="stroke: black; stroke-width: 1; stroke-dasharray: 1,2;"></path>
    <path d="M0,640h960M0,527h960M0,460h960M0,413h960M0,377h960M0,347h960M0,322h960M0,300h960M0,281h960M0,263h960M0,150h960M0,84h960M0,37h960M0,0h960" style="stroke: black; stroke-width: 1; stroke-dasharray: 1,2;"></path>
   </g>
   <svg x="0" y="0" overflow="hidden" width="960" height="640" viewBox="0 0 960 640">
    <g>
     <path d="M429.27,645C429.12,644.14,398.8,467.62,398.37,465.82S382.5,423.52,380.94,420S342.95,348.65,341.28,345S323.98,299.51,323.05,299.76S334.11,265.45,335.29,262.86S361.71,227.81,364.4,222.38S416.22,86.14,417.16,83.1S429.75,36.63,429.27,36.51S414.23,-29.28,414.11,-29.83L384.86,-23.14C385.76,-20.98,421.11,65.28,421.61,65.51S398.45,67.91,388.49,74.26S340.17,203.72,337.53,209.05S308.53,251.02,307.97,250.46S330.2,328.25,330.78,328.75S310.24,357.14,314,357.48S351.98,428.72,353.51,432.14S368.77,471.01,369.19,472.74S399.56,649.25,399.71,650.1Z" style="fill: url(#pat_3005_6); opacity: 0.75;"></path>
     <path d="M429.27,645C429.12,644.14,398.8,467.62,398.37,465.82S382.5,423.52,380.94,420S342.95,348.65,341.28,345S323.98,299.51,323.05,299.76S334.11,265.45,335.29,262.86S361.71,227.81,364.4,222.38S416.22,86.14,417.16,83.1S429.75,36.63,429.27,36.51S414.23,-29.28,414.11,-29.83" style="stroke: magenta; stroke-width: 3; fill: none;"></path>
    </g>
    <g>
     <path d="M959,459l-64,-2l-74,-2l-66,-8l-94,-6l-70,-17l-62,-30l-76,-53l-51,-41l-67,-10l-38,-19l-23,-53l-18,-60l-8,-53l11,-106" style="stroke: black; stroke-width: 3; fill: none;"></path>
    </g>
    <g>
     <path d="M526.67,251.47C530.58,249.23,547.08,237.86,557.85,233.59S584.61,225.21,601.44,224.06S639.99,228.63,659.32,228.83S702.5,226.81,717.43,225.25S738.36,222.73,749.89,220.48S775.62,213.5,789.23,210.95S818.04,208.9,834.38,204.99S873.98,190.72,892.9,184.73S949.1,168.6,959.33,165.66L951.05,136.83C940.7,139.8,902.56,150.18,883.85,156.13S843.19,172.04,827.41,175.81S797.12,178.97,783.71,181.46S755.3,188.87,744.15,191.04S728.26,193.96,714.32,195.41S678.79,198.98,659.63,198.83S618.11,192.8,599.4,194.13S559.47,200.74,546.81,205.7S516.18,222.95,511.75,225.44Z" style="fill: url(#pat_3004_2); opacity: 0.75;"></path>
     <path d="M526.67,251.47C530.58,249.23,547.08,237.86,557.85,233.59S584.61,225.21,601.44,224.06S639.99,228.63,659.32,228.83S702.5,226.81,717.43,225.25S738.36,222.73,749.89,220.48S775.62,213.5,789.23,210.95S818.04,208.9,834.38,204.99S873.98,190.72,892.9,184.73S949.1,168.6,959.33,165.66" style="stroke: red; stroke-width: 3; fill: none;"></path>
    </g>
    <g>
     <path d="M530.46,464.8C536.76,461.52,564.38,446.59,578.54,439.78S620.97,418.83,635.07,414.75S659.31,408.11,670.26,409.98S693.62,420.04,702.71,425.47S730.64,449.1,744.27,455.27S786.25,461.2,801.23,466S828.62,478.44,843.39,485.07S892.74,505.51,907.67,513.67S953.62,543.42,959.73,547.38L940.71,576.76C934.87,572.97,905.22,552.21,890.89,544.38S842.96,523.27,829.06,517S805.47,504.25,790.55,499.33S744.49,493.77,729.84,487.16S692.64,460.42,684.77,455.52S670.83,445.59,664.36,444.48S655.45,444.92,644.79,448.37S606.97,464.88,593.73,471.31S552.79,492.63,546.62,495.85Z" style="fill: url(#pat_3004_4); opacity: 0.75;"></path>
     <path d="M530.46,464.8C536.76,461.52,564.38,446.59,578.54,439.78S620.97,418.83,635.07,414.75S659.31,408.11,670.26,409.98S693.62,420.04,702.71,425.47S730.64,449.1,744.27,455.27S786.25,461.2,801.23,466S828.62,478.44,843.39,485.07S892.74,505.51,907.67,513.67S953.62,543.42,959.73,547.38" style="stroke: blue; stroke-width: 3; fill: none;"></path>
    </g>
    <g>
     <path d="M465.21,126.33C477.91,131.18,524.98,149.67,552.52,159.7S628.81,191.83,652.33,194.26S681.15,193.18,695.15,188.31S733.04,165.74,746.53,159.7S781.08,148.46,792.26,144.21S813.01,135.11,823.31,131.1S851.49,120.25,863.4,116.8S885.33,111.43,900.74,108.45S949.81,100.47,959.33,98.92L954.51,69.31C944.85,70.88,911.03,75.9,895.05,79S867.74,84.3,855.04,87.98S823.05,99.01,812.42,103.14S792.96,111.83,781.59,116.17S747.58,126.29,734.27,132.32S696.95,155.81,685.29,159.97S675.63,166.51,655.42,164.42S589.12,141.23,562.78,131.51S488.55,103.14,475.92,98.31Z" style="fill: url(#pat_3004_4); opacity: 0.75;"></path>
     <path d="M465.21,126.33C477.91,131.18,524.98,149.67,552.52,159.7S628.81,191.83,652.33,194.26S681.15,193.18,695.15,188.31S733.04,165.74,746.53,159.7S781.08,148.46,792.26,144.21S813.01,135.11,823.31,131.1S851.49,120.25,863.4,116.8S885.33,111.43,900.74,108.45S949.81,100.47,959.33,98.92" style="stroke: blue; stroke-width: 3; fill: none;"></path>
    </g>
   </svg>
   <g>
    <g transform="translate(0,640)">
     <path d="M0,0h960M0,-640h960M103,-16v16m289,-16v16m289,-16v16M103,-624v-16m289,16v-16m289,16v-16" style="stroke: black; stroke-width: 1;"></path>
     <g font-family="Arial" font-size="24" space="preserve">
      <g transform="translate(93,32)">
       <text fill="black" font-size="24">
        2
       </text>
       <text fill="black" font-size="14" transform="translate(13,-12)">
        6
       </text>
      </g>
      <g transform="translate(382,32)">
       <text fill="black" font-size="24">
        2
       </text>
       <text fill="black" font-size="14" transform="translate(13,-12)">
        7
       </text>
      </g>
      <g transform="translate(671,32)">
       <text fill="black" font-size="24">
        2
       </text>
       <text fill="black" font-size="14" transform="translate(13,-12)">
        8
       </text>
      </g>
     </g>
     <g font-family="Arial" font-size="28" space="preserve" transform="translate(480,45)">
      <g transform="translate(-58,9)">
       <text fill="black" font-size="28">
        m
       </text>
       <text fill="black" font-size="17" transform="translate(24,5)">
        A
       </text>
       <text fill="black" font-size="28" x="36">
        (GeV)
       </text>
      </g>
     </g>
    </g>
    <g>
     <path d="M0,0v640M960,0v640M36,640h-36m36,-113h-36m36,-67h-36m36,-47h-36m36,-36h-36m36,-30h-36m36,-25h-36m36,-22h-36m36,-19h-36m36,-18h-36m36,-113h-36m36,-66h-36m36,-47h-36m36,-37h-36M924,640h36m-36,-113h36m-36,-67h36m-36,-47h36m-36,-36h36m-36,-30h36m-36,-25h36m-36,-22h36m-36,-19h36m-36,-18h36m-36,-113h36m-36,-66h36m-36,-47h36m-36,-37h36" style="stroke: black; stroke-width: 1;"></path>
     <g font-family="Arial" font-size="16" space="preserve" fill="black" text-anchor="end">
      <text dy=".4em" transform="translate(-4,640)">
       1
      </text>
      <text dy=".4em" transform="translate(-4,527)">
       2
      </text>
      <text dy=".4em" transform="translate(-4,460)">
       3
      </text>
      <text dy=".4em" transform="translate(-4,413)">
       4
      </text>
      <text dy=".4em" transform="translate(-4,377)">
       5
      </text>
      <text dy=".4em" transform="translate(-4,347)">
       6
      </text>
      <text dy=".4em" transform="translate(-4,322)">
       7
      </text>
      <text dy=".4em" transform="translate(-4,300)">
       8
      </text>
      <text dy=".4em" transform="translate(-4,281)">
       9
      </text>
      <text dy=".4em" transform="translate(-4,263)">
       10
      </text>
      <text dy=".4em" transform="translate(-4,150)">
       20
      </text>
      <text dy=".4em" transform="translate(-4,84)">
       30
      </text>
      <text dy=".4em" transform="translate(-4,37)">
       40
      </text>
      <text dy=".4em" transform="translate(-4)">
       50
      </text>
     </g>
     <g font-family="Arial" font-size="28" space="preserve" transform="translate(-51,640)">
      <g transform=" rotate(270) translate(0,10)">
       <text fill="black" font-size="28">
        tanβ
       </text>
      </g>
     </g>
    </g>
   </g>
   <g>
    <g font-family="Arial" font-size="29" space="preserve" font-weight="bold">
     <g transform="translate(432,45)">
      <text fill="magenta" font-size="29">
       ← t → bH
      </text>
      <text fill="magenta" font-size="17" transform="translate(134,-14)">
       +
      </text>
      <text fill="magenta" font-size="29" x="145">
       , H
      </text>
      <text fill="magenta" font-size="17" transform="translate(183,-14)">
       +
      </text>
      <text fill="magenta" font-size="29" x="194">
       → τν
      </text>
     </g>
    </g>
    <g font-family="Arial" font-size="29" space="preserve" font-weight="bold">
     <text fill="black" text-anchor="start" transform="translate(808,331)">
      ATLAS
     </text>
    </g>
    <g font-family="Arial" font-size="17" space="preserve" font-weight="bold">
     <g transform="translate(785,369)">
      <g>
       <path style="stroke: black; stroke-width: 2; fill: none;" d="M0,4a3,3,0,0,0,6,0v-23a3,3,0,1,1,6,0"></path>
      </g>
      <text fill="black" font-size="17" x="17">
       Ldt = 300 fb
      </text>
      <text fill="black" font-size="10" transform="translate(112,-8)">
       -1
      </text>
     </g>
    </g>
    <g font-family="Arial" font-size="17" space="preserve" font-weight="bold">
     <text fill="black" text-anchor="start" transform="translate(800,406)">
      Maximal mixing
     </text>
    </g>
    <g font-family="Arial" font-size="17" space="preserve" font-weight="bold">
     <text fill="black" text-anchor="start" transform="translate(881,489)">
      LEP 2000
     </text>
    </g>
    <g font-family="Arial" font-size="29" space="preserve" font-weight="bold">
     <g transform="translate(553,274)">
      <text fill="red" font-size="29">
       gb → tH
      </text>
      <text fill="red" font-size="17" transform="translate(112,-14)">
       +
      </text>
      <text fill="red" font-size="29" x="123">
       , H
      </text>
      <text fill="red" font-size="17" transform="translate(161,-14)">
       +
      </text>
      <text fill="red" font-size="29" x="172">
       → τν
      </text>
     </g>
    </g>
    <g font-family="Arial" font-size="29" space="preserve" font-weight="bold">
     <g transform="translate(498,616)">
      <text fill="blue" font-size="29">
       gb → tH
      </text>
      <text fill="blue" font-size="17" transform="translate(112,-14)">
       +
      </text>
      <text fill="blue" font-size="29" x="123">
       , H
      </text>
      <text fill="blue" font-size="17" transform="translate(161,-14)">
       +
      </text>
      <text fill="blue" font-size="29" x="172">
       → tb
      </text>
     </g>
    </g>
   </g>
  </g>
 </g>
</svg>

<svg xmlns="http://www.w3.org/2000/svg" viewBox="0 0 1200 800" preserveAspectRatio="none" width="1200" height="800">
 <defs>
  <pattern id="pat_3005_6" patternUnits="userSpaceOnUse" width="8" height="8">
   <path d="M0,0L8,8" style="stroke: magenta; stroke-width: 1;"></path>
  </pattern>
  <pattern id="pat_3005_1" patternUnits="userSpaceOnUse" width="8" height="8">
   <path d="M0,0L8,8" style="stroke: black; stroke-width: 1;"></path>
  </pattern>
  <pattern id="pat_3004_2" patternUnits="userSpaceOnUse" width="8" height="8">
   <path d="M8,0L0,8" style="stroke: red; stroke-width: 1;"></path>
  </pattern>
  <pattern id="pat_3004_4" patternUnits="userSpaceOnUse" width="8" height="8">
   <path d="M8,0L0,8" style="stroke: blue; stroke-width: 1;"></path>
  </pattern>
 </defs>
 <path d="M0,0H1200V800H0Z" style="fill: white;"></path>
 <g>
  <g transform="translate(120,80)">
   <path d="M0,0H960V640H0Z" style="fill: white; stroke: black; stroke-width: 1;"></path>
   <g>
    <path d="M103,0v640M392,0v640M681,0v640" style="stroke: black; stroke-width: 1; stroke-dasharray: 1,2;"></path>
    <path d="M0,640h960M0,527h960M0,460h960M0,413h960M0,377h960M0,347h960M0,322h960M0,300h960M0,281h960M0,263h960M0,150h960M0,84h960M0,37h960M0,0h960" style="stroke: black; stroke-width: 1; stroke-dasharray: 1,2;"></path>
   </g>
   <svg x="0" y="0" overflow="hidden" width="960" height="640" viewBox="0 0 960 640">
    <g>
     <path d="M429.27,645C429.12,644.14,398.8,467.62,398.37,465.82S382.5,423.52,380.94,420S342.95,348.65,341.28,345S323.98,299.51,323.05,299.76S334.11,265.45,335.29,262.86S361.71,227.81,364.4,222.38S416.22,86.14,417.16,83.1S429.75,36.63,429.27,36.51S414.23,-29.28,414.11,-29.83L384.86,-23.14C385.76,-20.98,421.11,65.28,421.61,65.51S398.45,67.91,388.49,74.26S340.17,203.72,337.53,209.05S308.53,251.02,307.97,250.46S330.2,328.25,330.78,328.75S310.24,357.14,314,357.48S351.98,428.72,353.51,432.14S368.77,471.01,369.19,472.74S399.56,649.25,399.71,650.1Z" style="fill: url(#pat_3005_6); opacity: 0.75;"></path>
     <path d="M429.27,645C429.12,644.14,398.8,467.62,398.37,465.82S382.5,423.52,380.94,420S342.95,348.65,341.28,345S323.98,299.51,323.05,299.76S334.11,265.45,335.29,262.86S361.71,227.81,364.4,222.38S416.22,86.14,417.16,83.1S429.75,36.63,429.27,36.51S414.23,-29.28,414.11,-29.83" style="stroke: magenta; stroke-width: 3; fill: none;"></path>
    </g>
    <g>
     <path d="M959,459l-64,-2l-74,-2l-66,-8l-94,-6l-70,-17l-62,-30l-76,-53l-51,-41l-67,-10l-38,-19l-23,-53l-18,-60l-8,-53l11,-106" style="stroke: black; stroke-width: 3; fill: none;"></path>
    </g>
    <g>
     <path d="M526.67,251.47C530.58,249.23,547.08,237.86,557.85,233.59S584.61,225.21,601.44,224.06S639.99,228.63,659.32,228.83S702.5,226.81,717.43,225.25S738.36,222.73,749.89,220.48S775.62,213.5,789.23,210.95S818.04,208.9,834.38,204.99S873.98,190.72,892.9,184.73S949.1,168.6,959.33,165.66L951.05,136.83C940.7,139.8,902.56,150.18,883.85,156.13S843.19,172.04,827.41,175.81S797.12,178.97,783.71,181.46S755.3,188.87,744.15,191.04S728.26,193.96,714.32,195.41S678.79,198.98,659.63,198.83S618.11,192.8,599.4,194.13S559.47,200.74,546.81,205.7S516.18,222.95,511.75,225.44Z" style="fill: url(#pat_3004_2); opacity: 0.75;"></path>
     <path d="M526.67,251.47C530.58,249.23,547.08,237.86,557.85,233.59S584.61,225.21,601.44,224.06S639.99,228.63,659.32,228.83S702.5,226.81,717.43,225.25S738.36,222.73,749.89,220.48S775.62,213.5,789.23,210.95S818.04,208.9,834.38,204.99S873.98,190.72,892.9,184.73S949.1,168.6,959.33,165.66" style="stroke: red; stroke-width: 3; fill: none;"></path>
    </g>
    <g>
     <path d="M530.46,464.8C536.76,461.52,564.38,446.59,578.54,439.78S620.97,418.83,635.07,414.75S659.31,408.11,670.26,409.98S693.62,420.04,702.71,425.47S730.64,449.1,744.27,455.27S786.25,461.2,801.23,466S828.62,478.44,843.39,485.07S892.74,505.51,907.67,513.67S953.62,543.42,959.73,547.38L940.71,576.76C934.87,572.97,905.22,552.21,890.89,544.38S842.96,523.27,829.06,517S805.47,504.25,790.55,499.33S744.49,493.77,729.84,487.16S692.64,460.42,684.77,455.52S670.83,445.59,664.36,444.48S655.45,444.92,644.79,448.37S606.97,464.88,593.73,471.31S552.79,492.63,546.62,495.85Z" style="fill: url(#pat_3004_4); opacity: 0.75;"></path>
     <path d="M530.46,464.8C536.76,461.52,564.38,446.59,578.54,439.78S620.97,418.83,635.07,414.75S659.31,408.11,670.26,409.98S693.62,420.04,702.71,425.47S730.64,449.1,744.27,455.27S786.25,461.2,801.23,466S828.62,478.44,843.39,485.07S892.74,505.51,907.67,513.67S953.62,543.42,959.73,547.38" style="stroke: blue; stroke-width: 3; fill: none;"></path>
    </g>
    <g>
     <path d="M465.21,126.33C477.91,131.18,524.98,149.67,552.52,159.7S628.81,191.83,652.33,194.26S681.15,193.18,695.15,188.31S733.04,165.74,746.53,159.7S781.08,148.46,792.26,144.21S813.01,135.11,823.31,131.1S851.49,120.25,863.4,116.8S885.33,111.43,900.74,108.45S949.81,100.47,959.33,98.92L954.51,69.31C944.85,70.88,911.03,75.9,895.05,79S867.74,84.3,855.04,87.98S823.05,99.01,812.42,103.14S792.96,111.83,781.59,116.17S747.58,126.29,734.27,132.32S696.95,155.81,685.29,159.97S675.63,166.51,655.42,164.42S589.12,141.23,562.78,131.51S488.55,103.14,475.92,98.31Z" style="fill: url(#pat_3004_4); opacity: 0.75;"></path>
     <path d="M465.21,126.33C477.91,131.18,524.98,149.67,552.52,159.7S628.81,191.83,652.33,194.26S681.15,193.18,695.15,188.31S733.04,165.74,746.53,159.7S781.08,148.46,792.26,144.21S813.01,135.11,823.31,131.1S851.49,120.25,863.4,116.8S885.33,111.43,900.74,108.45S949.81,100.47,959.33,98.92" style="stroke: blue; stroke-width: 3; fill: none;"></path>
    </g>
   </svg>
   <g>
    <g transform="translate(0,640)">
     <path d="M0,0h960M0,-640h960M103,-16v16m289,-16v16m289,-16v16M103,-624V-640M392,-624V-640M681,-624V-640" style="stroke: black; stroke-width: 1;"></path>
     <g font-family="Arial" font-size="24" space="preserve">
      <g transform="translate(93,32)">
       <text fill="black" font-size="24">
        2
       </text>
       <text fill="black" font-size="14" transform="translate(13,-12)">
        6
       </text>
      </g>
      <g transform="translate(382,32)">
       <text fill="black" font-size="24">
        2
       </text>
       <text fill="black" font-size="14" transform="translate(13,-12)">
        7
       </text>
      </g>
      <g transform="translate(671,32)">
       <text fill="black" font-size="24">
        2
       </text>
       <text fill="black" font-size="14" transform="translate(13,-12)">
        8
       </text>
      </g>
     </g>
     <g font-family="Arial" font-size="28" space="preserve" transform="translate(480,45)">
      <g transform="translate(-58,9)">
       <text fill="black" font-size="28">
        m
       </text>
       <text fill="black" font-size="17" transform="translate(24,5)">
        A
       </text>
       <text fill="black" font-size="28" x="36">
        (GeV)
       </text>
      </g>
     </g>
    </g>
    <g>
     <path d="M0,0v640M960,0v640M36,640h-36m36,-113h-36m36,-67h-36m36,-47h-36m36,-36h-36m36,-30h-36m36,-25h-36m36,-22h-36m36,-19h-36m36,-18h-36m36,-113h-36m36,-66h-36m36,-47h-36m36,-37h-36M924,640H960M924,527H960M924,460H960M924,413H960M924,377H960M924,347H960M924,322H960M924,300H960M924,281H960M924,263H960M924,150H960M924,84H960M924,37H960M924,0H960" style="stroke: black; stroke-width: 1;"></path>
     <g font-family="Arial" font-size="16" space="preserve" fill="black" text-anchor="end">
      <text dy=".4em" transform="translate(-4,640)">
       1
      </text>
      <text dy=".4em" transform="translate(-4,527)">
       2
      </text>
      <text dy=".4em" transform="translate(-4,460)">
       3
      </text>
      <text dy=".4em" transform="translate(-4,413)">
       4
      </text>
      <text dy=".4em" transform="translate(-4,377)">
       5
      </text>
      <text dy=".4em" transform="translate(-4,347)">
       6
      </text>
      <text dy=".4em" transform="translate(-4,322)">
       7
      </text>
      <text dy=".4em" transform="translate(-4,300)">
       8
      </text>
      <text dy=".4em" transform="translate(-4,281)">
       9
      </text>
      <text dy=".4em" transform="translate(-4,263)">
       10
      </text>
      <text dy=".4em" transform="translate(-4,150)">
       20
      </text>
      <text dy=".4em" transform="translate(-4,84)">
       30
      </text>
      <text dy=".4em" transform="translate(-4,37)">
       40
      </text>
      <text dy=".4em" transform="translate(-4)">
       50
      </text>
     </g>
     <g font-family="Arial" font-size="28" space="preserve" transform="translate(-51,640)">
      <g transform=" rotate(270) translate(0,10)">
       <text fill="black" font-size="28">
        tanβ
       </text>
      </g>
     </g>
    </g>
   </g>
   <g>
    <g font-family="Arial" font-size="29" space="preserve" font-weight="bold">
     <g transform="translate(432,45)">
      <text fill="magenta" font-size="29">
       ← t → bH
      </text>
      <text fill="magenta" font-size="17" transform="translate(134,-14)">
       +
      </text>
      <text fill="magenta" font-size="29" x="145">
       , H
      </text>
      <text fill="magenta" font-size="17" transform="translate(183,-14)">
       +
      </text>
      <text fill="magenta" font-size="29" x="194">
       → τν
      </text>
     </g>
    </g>
    <g font-family="Arial" font-size="29" space="preserve" font-weight="bold">
     <text fill="black" text-anchor="start" transform="translate(808,331)">
      ATLAS
     </text>
    </g>
    <g font-family="Arial" font-size="17" space="preserve" font-weight="bold">
     <g transform="translate(785,369)">
      <g>
       <path style="stroke: black; stroke-width: 2; fill: none;" d="M0,4a3,3,0,0,0,6,0v-23a3,3,0,1,1,6,0"></path>
      </g>
      <text fill="black" font-size="17" x="17">
       Ldt = 300 fb
      </text>
      <text fill="black" font-size="10" transform="translate(112,-8)">
       -1
      </text>
     </g>
    </g>
    <g font-family="Arial" font-size="17" space="preserve" font-weight="bold">
     <text fill="black" text-anchor="start" transform="translate(800,406)">
      Maximal mixing
     </text>
    </g>
    <g font-family="Arial" font-size="17" space="preserve" font-weight="bold">
     <text fill="black" text-anchor="start" transform="translate(881,489)">
      LEP 2000
     </text>
    </g>
    <g font-family="Arial" font-size="29" space="preserve" font-weight="bold">
     <g transform="translate(553,274)">
      <text fill="red" font-size="29">
       gb → tH
      </text>
      <text fill="red" font-size="17" transform="translate(112,-14)">
       +
      </text>
      <text fill="red" font-size="29" x="123">
       , H
      </text>
      <text fill="red" font-size="17" transform="translate(161,-14)">
       +
      </text>
      <text fill="red" font-size="29" x="172">
       → τν
      </text>
     </g>
    </g>
    <g font-family="Arial" font-size="29" space="preserve" font-weight="bold">
     <g transform="translate(498,616)">
      <text fill="blue" font-size="29">
       gb → tH
      </text>
      <text fill="blue" font-size="17" transform="translate(112,-14)">
       +
      </text>
      <text fill="blue" font-size="29" x="123">
       , H
      </text>
      <text fill="blue" font-size="17" transform="translate(161,-14)">
       +
      </text>
      <text fill="blue" font-size="29" x="172">
       → tb
      </text>
     </g>
    </g>
   </g>
  </g>
 </g>
</svg>
